assets/img/braze_icons/file-attachment-01.svg

<svg fill="none" height="24" viewBox="0 0 24 24" width="24" xmlns="http://www.w3.org/2000/svg"><g fill="#801ed7"><path clip-rule="evenodd" d="m6.5 3c-.27614 0-.5.22386-.5.5v5.5c0 .55228-.44772 1-1 1s-1-.44772-1-1v-5.5c0-1.38071 1.11929-2.5 2.5-2.5s2.5 1.11929 2.5 2.5v5.5c0 2.2091-1.79086 4-4 4s-4-1.7909-4-4v-4c0-.55228.44772-1 1-1s1 .44772 1 1v4c0 1.1046.89543 2 2 2s2-.8954 2-2v-5.5c0-.27614-.22386-.5-.5-.5z" fill-rule="evenodd"/><path d="m4.09589 14.9323c-.43446-.0656-.65169-.0985-.77494-.0512-.12039.0462-.19214.1079-.25579.22-.06516.1148-.06516.3061-.06516.6887v1.4515c-.00001.805-.00002 1.4693.04419 2.0105.04593.5621.14449 1.0788.39179 1.5642.38349.7526.99541 1.3645 1.74806 1.748.48533.2473 1.00204.3459 1.56414.3918.54119.0442 1.20554.0442 2.0105.0442h6.48262c.805 0 1.4693 0 2.0105-.0442.5621-.0459 1.0788-.1445 1.5642-.3918.7526-.3835 1.3645-.9954 1.748-1.748.2473-.4854.3459-1.0021.3918-1.5642.0442-.5412.0442-1.2055.0442-2.0105v-10.48262c0-.80496 0-1.46931-.0442-2.0105-.0459-.5621-.1445-1.07881-.3918-1.56414-.3835-.75265-.9954-1.36457-1.748-1.74806-.4854-.2473-1.0021-.34586-1.5642-.39179-.5412-.044212-1.2055-.044202-2.0105-.04419h-3.5009c-.4896 0-.7344 0-.8543.07318-.1249.07622-.1762.14256-.2183.28268-.0405.13453.0351.42434.1865 1.00395.0951.36414.1457.74625.1457 1.14019v5.5c0 3.3137-2.68629 6-6 6-.30731 0-.60923-.0231-.90411-.0677z"/></g></svg>

<svg width="24" height="24" viewBox="0 0 24 24" fill="none" xmlns="http://www.w3.org/2000/svg">
<path fill-rule="evenodd" clip-rule="evenodd" d="M6.5 3C6.22386 3 6 3.22386 6 3.5V9C6 9.55228 5.55228 10 5 10C4.44772 10 4 9.55228 4 9V3.5C4 2.11929 5.11929 1 6.5 1C7.88071 1 9 2.11929 9 3.5V9C9 11.2091 7.20914 13 5 13C2.79086 13 1 11.2091 1 9V5C1 4.44772 1.44772 4 2 4C2.55228 4 3 4.44772 3 5V9C3 10.1046 3.89543 11 5 11C6.10457 11 7 10.1046 7 9V3.5C7 3.22386 6.77614 3 6.5 3Z" fill="#801ED7"/>
<path d="M4.09589 14.9323C3.66143 14.8667 3.4442 14.8338 3.32095 14.8811C3.20056 14.9273 3.12881 14.989 3.06516 15.1011C3 15.2159 3 15.4072 3 15.7898V17.2413C2.99999 18.0463 2.99998 18.7106 3.04419 19.2518C3.09012 19.8139 3.18868 20.3306 3.43598 20.816C3.81947 21.5686 4.43139 22.1805 5.18404 22.564C5.66937 22.8113 6.18608 22.9099 6.74818 22.9558C7.28937 23 7.95372 23 8.75868 23H15.2413C16.0463 23 16.7106 23 17.2518 22.9558C17.8139 22.9099 18.3306 22.8113 18.816 22.564C19.5686 22.1805 20.1805 21.5686 20.564 20.816C20.8113 20.3306 20.9099 19.8139 20.9558 19.2518C21 18.7106 21 18.0463 21 17.2413V6.75868C21 5.95372 21 5.28937 20.9558 4.74818C20.9099 4.18608 20.8113 3.66937 20.564 3.18404C20.1805 2.43139 19.5686 1.81947 18.816 1.43598C18.3306 1.18868 17.8139 1.09012 17.2518 1.04419C16.7106 0.999978 16.0463 0.999988 15.2413 1H11.7404C11.2508 1 11.006 1 10.8861 1.07318C10.7612 1.1494 10.7099 1.21574 10.6678 1.35586C10.6273 1.49039 10.7029 1.7802 10.8543 2.35981C10.9494 2.72395 11 3.10606 11 3.5V9C11 12.3137 8.31371 15 5 15C4.69269 15 4.39077 14.9769 4.09589 14.9323Z" fill="#801ED7"/>
</svg>
